X:3
T:Buckley's Fancy
S:Trad, arr. Paddy O'Brien
R:reel
E:9
I:speed 350
M:C|
K:G
F2|~G2 BG dGBG|ABcd egdB|~G2 BG dGBG|ABAG FDEF|\
~G2BG dGBG|ABcd efga|bgaf gedB|GBAF G2:|\
Bd|gfga gede|gabg ageg|agab agef|gabg ~e2 de|\
gfga gede|gabg agef|~g2fa gedB|GBAF G2:|**

\vfill\eject

